X:1
T:Four Courts
R:Reel
S:Cyrille Gaillard (2005-03)
Q:1/4=150
M:2/2
L:1/8
K:Dmix
% A
|| "D" ADDD AD "G" BD | "D" ADDD "G" G2FG | "D" ADDD BAGA | "G" BdcA G2FG |
   "D" ADDD AD "G" BD | "D" ADDD "Em" G2FG | "D" ADDD BAGA | "D/F#" BdcA "G" G2FG
% B
|| "C/D" E2cE dEc2| E2cA G2FG | E2cE dEc2 | "D(2)" BdcA GGFG |
   "C/D" E2cE dEc2| E2cA G2FG | Addc dcAd | dcAF G2FG
% C
|| "D(2)" A3 c B3 G | ABAF G2FG | "C" A3 c B3 A | GBBB GBdB |
   "Bm" A3 c B3 G | ABAF G2FG | "C" Addc dcAd | dcAF G2 |]
